src/icons/protobuf.svg

<svg width="16" height="16" viewBox="0 0 16 16" fill="none" xmlns="http://www.w3.org/2000/svg">
<path fill-rule="evenodd" clip-rule="evenodd" d="M7.9999 1L1.9939 4.51V11.51L7.9999 15L13.9999 11.45L14.0069 4.55L7.9999 1ZM13.4769 11.15L7.9999 14.39L2.5189 11.204V4.814L7.9999 1.61L13.4829 4.85L13.4769 11.15Z" fill="#6B7394"/>
<path fill-rule="evenodd" clip-rule="evenodd" d="M12.7849 6.827L9.97295 8.482L9.97095 12.445L12.7949 10.782L12.7849 6.827Z" fill="#89DDFF"/>
<path fill-rule="evenodd" clip-rule="evenodd" d="M11.6408 6.15199L12.7838 6.82699L9.97282 8.48199L9.97082 12.445L8.66382 11.685L8.67382 7.93799L11.6408 6.15199Z" fill="#3965BD"/>
<path fill-rule="evenodd" clip-rule="evenodd" d="M11.2558 5.175L11.2568 5.908L8.20583 7.75L8.20883 11.8L7.49883 12.217L7.49683 7.429L11.2558 5.175Z" fill="#C3E88D"/>
<path fill-rule="evenodd" clip-rule="evenodd" d="M10.004 4.436L11.256 5.175L7.49699 7.428L7.49899 12.216L6.09699 11.4L6.09399 6.707L10.004 4.436Z" fill="#C3E88D"/>
<path fill-rule="evenodd" clip-rule="evenodd" d="M9.61281 3.30299V4.18699L5.60481 6.53699V11.586L4.90381 11.994L4.91781 6.13799L9.61281 3.30299Z" fill="#BB80B3"/>
<path fill-rule="evenodd" clip-rule="evenodd" d="M8.07989 2.392L3.26489 5.197V11.036L4.91289 11.994L4.91789 6.139L9.61789 3.303L8.07989 2.392Z" fill="#FF9CAC"/>
</svg>

<svg xmlns="http://www.w3.org/2000/svg" width="16" height="16" fill="none"><g fill-rule="evenodd" clip-rule="evenodd"><path fill="#6B7394" d="M8 1 1.994 4.51v7L8 15l6-3.55.007-6.9zm5.477 10.15L8 14.39l-5.481-3.186v-6.39L8 1.61l5.483 3.24z"/><path fill="#89DDFF" d="M12.785 6.827 9.973 8.482l-.002 3.963 2.824-1.663z"/><path fill="#3965BD" d="m11.641 6.152 1.143.675-2.811 1.655-.002 3.963-1.307-.76.01-3.747z"/><path fill="#C3E88D" d="m11.256 5.175.001.733L8.206 7.75l.003 4.05-.71.417-.002-4.788z"/><path fill="#C3E88D" d="m10.004 4.436 1.252.739-3.759 2.253.002 4.788-1.402-.816-.003-4.693z"/><path fill="#BB80B3" d="M9.613 3.303v.884l-4.008 2.35v5.049l-.701.408.014-5.856z"/><path fill="#FF9CAC" d="M8.08 2.392 3.265 5.197v5.839l1.648.958.005-5.855 4.7-2.836z"/></g></svg>
